deployments/warp_routes/RCADE/logo.svg

<svg width="257" height="293" viewBox="0 0 257 293" fill="none" xmlns="http://www.w3.org/2000/svg">
<path d="M128.018 0C129.796 2.97426e-06 131.575 0.461582 133.168 1.38086L250.881 69.3506L250.878 69.3467C254.064 71.1887 256.028 74.5908 256.028 78.2715V214.21C256.028 217.891 254.067 221.293 250.878 223.135L160.285 275.442C155.224 278.785 150.04 281.997 144.76 284.406L133.165 291.104C131.572 292.024 129.793 292.485 128.015 292.485C126.236 292.485 124.456 292.024 122.863 291.104L111.269 284.406C105.985 281.997 100.804 278.785 95.7432 275.442L5.15039 223.135C1.96463 221.293 0 217.891 0 214.21V78.2754C0 74.5947 1.96129 71.1926 5.15039 69.3506L122.867 1.38086C124.46 0.461589 126.239 0 128.018 0ZM98.4316 176.653C93.2082 179.976 90.0752 184.197 90.0752 188.794C90.0755 199.494 107.017 208.17 127.918 208.17C148.819 208.17 165.76 199.494 165.761 188.794C165.761 184.27 162.734 180.108 157.66 176.812C157.952 177.655 158.114 178.522 158.114 179.404C158.114 187.718 144.641 194.456 128.018 194.456C111.394 194.456 97.9209 187.715 97.9209 179.404C97.9209 178.465 98.1032 177.546 98.4316 176.653ZM48.7314 184.416C39.6051 184.416 32.208 188.203 32.208 192.876C32.208 197.549 39.6051 201.336 48.7314 201.336C57.8577 201.336 65.2549 197.549 65.2549 192.876C65.2549 188.203 57.8577 184.416 48.7314 184.416ZM12.2559 79.4004V193.802L115.726 134.419V164.283C115.692 164.515 115.672 164.751 115.672 164.986C115.672 169.274 121.161 172.753 127.928 172.753C134.694 172.753 140.184 169.274 140.184 164.986C140.184 164.694 140.157 164.409 140.107 164.127V134.306L243.776 193.802V79.4004L128.018 12.5596L12.2559 79.4004ZM124.551 31.8438C126.645 30.6358 129.224 30.6357 131.314 31.8438L165.997 51.8711C168.091 53.0792 169.379 55.3124 169.379 57.7285V97.7822C169.379 100.198 168.088 102.433 165.997 103.641L131.314 123.667C129.22 124.875 126.642 124.875 124.551 123.667L89.8672 103.641C87.7731 102.433 86.4854 100.198 86.4854 97.7822V57.7285C86.4854 55.3125 87.7766 53.0792 89.8672 51.8711L124.551 31.8438Z" fill="#E60012"/>
</svg>

<svg xmlns="http://www.w3.org/2000/svg" width="257" height="293" fill="none" viewBox="0 0 257 293"><path fill="#E60012" d="M128.018 0c1.778 0 3.557.462 5.15 1.38l117.713 67.97-.003-.003a10.31 10.31 0 0 1 5.15 8.925V214.21c0 3.681-1.961 7.083-5.15 8.925l-90.593 52.307c-5.061 3.343-10.245 6.555-15.525 8.964l-11.595 6.698a10.3 10.3 0 0 1-10.302 0l-11.594-6.698c-5.284-2.409-10.465-5.621-15.526-8.964L5.15 223.135A10.31 10.31 0 0 1 0 214.21V78.275c0-3.68 1.961-7.082 5.15-8.924L122.867 1.38A10.3 10.3 0 0 1 128.018 0M98.432 176.653c-5.224 3.323-8.357 7.544-8.357 12.141 0 10.7 16.942 19.376 37.843 19.376s37.842-8.676 37.843-19.376c0-4.524-3.027-8.686-8.101-11.982.292.843.454 1.71.454 2.592 0 8.314-13.473 15.052-30.096 15.052-16.624 0-30.097-6.741-30.097-15.052 0-.939.182-1.858.51-2.751m-49.7 7.763c-9.127 0-16.524 3.787-16.524 8.46s7.397 8.46 16.523 8.46c9.127 0 16.524-3.787 16.524-8.46s-7.397-8.46-16.524-8.46M12.255 79.4v114.402l103.47-59.383v29.864a5 5 0 0 0-.054.703c0 4.288 5.489 7.767 12.256 7.767 6.766 0 12.256-3.479 12.256-7.767a5 5 0 0 0-.077-.859v-29.821l103.669 59.496V79.4L128.018 12.56zM124.55 31.844a6.76 6.76 0 0 1 6.763 0l34.683 20.027a6.76 6.76 0 0 1 3.382 5.857v40.054a6.77 6.77 0 0 1-3.382 5.859l-34.683 20.026a6.76 6.76 0 0 1-6.763 0l-34.684-20.026a6.76 6.76 0 0 1-3.382-5.859V57.73a6.77 6.77 0 0 1 3.382-5.858z"/></svg>
